X:2280
T:Bollan bane 
C:P Cain (Phil the Desert) West Baldwin
C:Traditional
O:Isle of Man
Z:Clague Collection
B:Kiaull Vannin #280 
M:6/8 
L:1/8 
Q:150 
K:D 
DDD D2D|D2B B2A|A2c d2e|f2d d2c|d3 d3|d2e f2e| 
d2c d2B|A2G F2E|DDD D2D|DDD D2B|B2A G2E|D3 D3|| 
Q:100 
M:2/4 
L:1/8 
dd/d/ dB|cdec|dcBA|d2 d2:|:DDFD|FDFD|FD FA|d2 d2:|
ff/f/ fe | fgfd | cABc |d2 d2!D.C.!||

